/* XPM */
static char *h2_t[] = {
/* columns rows colors chars-per-pixel */
"16 16 256 2 ",
"   c None",
".  c None",
"X  c None",
"o  c black",
"O  c black",
"+  c black",
"@  c None",
"#  c None",
"$  c None",
"%  c None",
"&  c None",
"*  c None",
"=  c None",
"-  c None",
";  c None",
":  c None",
">  c None",
",  c None",
"<  c None",
"1  c black",
"2  c cyan",
"3  c cyan",
"4  c black",
"5  c None",
"6  c None",
"7  c None",
"8  c None",
"9  c None",
"0  c None",
"q  c None",
"w  c None",
"e  c None",
"r  c None",
"t  c None",
"y  c None",
"u  c black",
"i  c blue",
"p  c cyan",
"a  c black",
"s  c black",
"d  c black",
"f  c None",
"g  c None",
"h  c None",
"j  c None",
"k  c None",
"l  c None",
"z  c None",
"x  c None",
"c  c None",
"v  c None",
"b  c black",
"n  c blue",
"m  c blue",
"M  c black",
"N  c cyan",
"B  c cyan",
"V  c black",
"C  c None",
"Z  c None",
"A  c None",
"S  c None",
"D  c None",
"F  c None",
"G  c None",
"H  c None",
"J  c None",
"K  c black",
"L  c blue",
"P  c blue",
"I  c black",
"U  c blue",
"Y  c cyan",
"T  c black",
"R  c None",
"E  c None",
"W  c None",
"Q  c None",
"!  c None",
"~  c None",
"^  c None",
"/  c None",
"(  c None",
")  c black",
"_  c blue",
"`  c blue",
"'  c black",
"]  c blue",
"[  c blue",
"{  c black",
"}  c black",
"|  c black",
" . c None",
".. c None",
"X. c None",
"o. c None",
"O. c None",
"+. c None",
"@. c None",
"#. c black",
"$. c blue",
"%. c blue",
"&. c black",
"*. c blue",
"=. c blue",
"-. c black",
";. c cyan",
":. c cyan",
">. c black",
",. c None",
"<. c None",
"1. c None",
"2. c None",
"3. c None",
"4. c None",
"5. c black",
"6. c blue",
"7. c blue",
"8. c black",
"9. c blue",
"0. c blue",
"q. c black",
"w. c blue",
"e. c cyan",
"r. c black",
"t. c None",
"y. c None",
"u. c None",
"i. c None",
"p. c None",
"a. c None",
"s. c black",
"d. c blue",
"f. c blue",
"g. c black",
"h. c blue",
"j. c blue",
"k. c black",
"l. c blue",
"z. c blue",
"x. c black",
"c. c None",
"v. c None",
"b. c None",
"n. c None",
"m. c None",
"M. c None",
"N. c black",
"B. c blue",
"V. c blue",
"C. c black",
"Z. c blue",
"A. c blue",
"S. c black",
"D. c blue",
"F. c blue",
"G. c black",
"H. c None",
"J. c None",
"K. c None",
"L. c None",
"P. c None",
"I. c None",
"U. c black",
"Y. c blue",
"T. c blue",
"R. c black",
"E. c blue",
"W. c blue",
"Q. c black",
"!. c blue",
"~. c blue",
"^. c black",
"/. c None",
"(. c None",
"). c None",
"_. c None",
"`. c None",
"'. c None",
"]. c black",
"[. c blue",
"{. c blue",
"}. c black",
"|. c blue",
" X c blue",
".X c black",
"XX c blue",
"oX c blue",
"OX c black",
"+X c None",
"@X c None",
"#X c None",
"$X c #808080",
"%X c #808080",
"&X c black",
"*X c black",
"=X c black",
"-X c blue",
";X c black",
":X c blue",
">X c blue",
",X c black",
"<X c blue",
"1X c blue",
"2X c black",
"3X c None",
"4X c None",
"5X c None",
"6X c #808080",
"7X c #808080",
"8X c #808080",
"9X c black",
"0X c black",
"qX c black",
"wX c black",
"eX c black",
"rX c blue",
"tX c black",
"yX c blue",
"uX c blue",
"iX c black",
"pX c None",
"aX c None",
"sX c None",
"dX c None",
"fX c None",
"gX c None",
"hX c #808080",
"jX c #808080",
"kX c #808080",
"lX c black",
"zX c black",
"xX c black",
"cX c black",
"vX c black",
"bX c blue",
"nX c black",
"mX c None",
"MX c None",
"NX c None",
"BX c None",
"VX c None",
"CX c None",
"ZX c None",
"AX c None",
"SX c None",
"DX c #808080",
"FX c #808080",
"GX c #808080",
"HX c #808080",
"JX c black",
"KX c black",
"LX c black",
"PX c None",
"IX c None",
"UX c None",
/* pixels */
"  . X o O + @ # $ % & * = - ; : ",
"> , < 1 2 3 4 5 6 7 8 9 0 q w e ",
"r t y u i p a s d f g h j k l z ",
"x c v b n m M N B V C Z A S D F ",
"G H J K L P I U Y T R E W Q ! ~ ",
"^ / ( ) _ ` ' ] [ { } |  ...X.o.",
"O.+.@.#.$.%.&.*.=.-.;.:.>.,.<.1.",
"2.3.4.5.6.7.8.9.0.q.w.e.r.t.y.u.",
"i.p.a.s.d.f.g.h.j.k.l.z.x.c.v.b.",
"n.m.M.N.B.V.C.Z.A.S.D.F.G.H.J.K.",
"L.P.I.U.Y.T.R.E.W.Q.!.~.^./.(.).",
"_.`.'.].[.{.}.|. X.XXXoXOX+X@X#X",
"$X%X&X*X=X-X;X:X>X,X<X1X2X3X4X5X",
"6X7X8X9X0XqXwXeXrXtXyXuXiXpXaXsX",
"dXfXgXhXjXkXlXzXxXcXvXbXnXmXMXNX",
"BXVXCXZXAXSXDXFXGXHXJXKXLXPXIXUX"
};
